X:101
T:Lloer Dirion Lliw'r Dydd
M:3/4
L:1/4
Q:60
C:Trad. arr. J.T.
R:Slow air
N:Slightly compressed
K:G
G | F<E E | E2 D | E E F | G<B G | E G F | E2 G |
F<E E | E2 D | E E F | B<B F | E G F | E2 B | B<B B |
| B2 B/B/ | c B A | B2 B | c<B B | A<G A | B A G |
F E E | E G F | F2 F | F<F F/G/ | A2 G/F/ | G>A B |
B2 F | G>A B | B<E E | G<G F | E2 F | F<B B | B2 B
| c B A | B2 B/B/ | c B B | A G A | B2 A/G/ | F E
E | G<G G | F2 F | F2 F/G/ | A2 F | G A B | B2 F |
G>A B | B<E E | G<G F | E2 ||
